X:1
T:Mach mir ein lustigs Liedelein
T:Hans Christoph Haiden
T:Mach mir ein lustigs Liedelein
T:aus „Ganz neue lustige Täntz und Liedlein“ (Nürnberg, 1601)
T:CPDL - Creative Commons Attribution Non Commercial 3.0
T:CPDL - Creative Commons Attribution Non Commercial 3.0
T:CPDL - Creative Commons Attribution Non Commercial 3.0
T:CPDL - Creative Commons Attribution Non Commercial 3.0
T:CPDL - Creative Commons Attribution Non Commercial 3.0
T:CPDL - Creative Commons Attribution Non Commercial 3.0
T:CPDL - Creative Commons Attribution Non Commercial 3.0
T:CPDL - Creative Commons Attribution Non Commercial 3.0
C:Hans Christoph Haiden
Z:CPDL - Creative Commons Attribution Non Commercial 3.0
%%score [ 1 2 3 4 ]
L:1/8
M:4/4
K:Bb
V:1 treble nm="Sopran"
V:2 treble nm="Alt"
V:3 treble-8 nm="Tenor"
V:4 bass nm="Bass"
V:1
"^Erster Teil" z4!f! d4 | c6 c2 | d2 =e2 f2 d2 | c6 f2 | d4 z2 A2 | B2 c2 d2 B2 | A4 z4 | %7
w: Mach|mir ein|lus- tigs Lie- de-|lein, mach|mir ein|lus- tigs Lie- de-|lein,|
 z4 z2 f2 | c3 d e2 c2 | d4!p!!<(! A2 AB | c2!<)!!>(! d2 c2 G2!>)! | A4 | z4 | z8 | z4!<(! B2 de | %15
w: ein|lus- tigs Lie- de-|lein. Der'n we- der|viel noch we- nig|sein,|||der'n we- der|
 f2!<)! g2!>(! f2 c2!>)! | d4!<(! c2 de!<)! | f2 d2!>(! f3 e | d8!>)! || %19
w: viel noch we- nig|sein, der'n we- der|viel noch we- nig|sein,|
[M:3/8]!p!"^ma bien marcato"[Q:3/16=120] B3 | G3 | c3 | A3 | B3 | G3 | G2 z | z3 | z3 | z3 | %29
w: die|sol-|ches|kön-|nen|sin-|gen,||||
 z2 c- | c2 A- | A2 B- | B2 G- | G2 c- | c2 A- |[M:4/4]!<(! A2 F2!<)! f4 | f2!>(! f2 e2 d2 | %37
w: die|_ sol-|* ches|_ kön-|* nen|_ sin-|* gen, die|sol- ches kön- nen|
 c8!>)! | d2!f! B2 f3 e | d2 c2 f3 e | d4 z2 F2 | B3 A G4 | z8 | z2 c2 f3 e | d2 !>!c4 B2 | %45
w: sin-|gen, und soll- t'n|sie, und soll- t'n|sie, und|soll- t'n sie,||und soll- t'n|sie drob zer-|
 A4 B2 f2 | g2 f2 d4 | !>!e6 d2 | c4 d4 | !>!e2 !>!d2 z2 c2 |[M:3/4] B4!p! d2 | d4 =e2 | f4 d2 | %53
w: sprin- gen, und|soll- t'n sie|drob zer-|sprin- gen,|drob zer- sprin-|gen. Doch|dass man|dar- nach|
 g4 fe | d4 d2 | c4 B2 | A4 B2 | c4 c2 |[M:4/4] B6!f! f2 | d6 B2 | c2 d2 e2 c2 | d4 z4 | z2 f2 d4 | %63
w: tan- zen *|kann, doch|dass man|dar- nach|tan- zen|kann, so|wirds g'wiss|g'fal- len je- der-|mann,|so wirds|
 z4 z2 c2 | d2 e2 f2 d2 | c2 f2 !>!g4- | g2 f2 e2[Q:1/4=120]"^senza rall." d2 | c4 c4 | %68
w: g'wiss|g'fal- len je- der-|mann, so wirds|_ g'wiss g'fal- len|je- der-|
 !fermata!d16 ||[M:4/4]"^Ander Teil" z8 | z8 | z4 z2!mf! c2 | d6 B2 | c2 d2 e2 c2 | d4 z2 f2 | %75
w: mann.|||Darfst|nicht viel|drin- nen ob- ser-|vier'n, darfst|
 c2 c2 g2 f2 | d2 =e2 f2 c2 | d4 z2!f! A2 | B4 z2 B2 | A4 z2!<(! G2 | _A4 c4!<)! | d4 z4 | %82
w: nicht viel drin- nen|ob- ser- vier'n den|Ton, den|Ton, den|Ton, den|Ton, den|Ton,|
 z2 c2 A2 =B2 | c2 d2 e4 | z4 z2 f2 | !>!e6 d2 | c2 B2 c4 | !>!f2 ff eedd | ccAA BGA=B | %89
w: wie sich sonst|will ge- bür'n,|wie|sich sonst|will ge- bür'n.|Machs nur schlecht nach der Paus' hin-|ein, machs nur schlecht nach der Paus' hi-|
 c2 c2 f2 e2 | c2 d2 e2 e2 |[M:3/4] d4!p! d2 | d4 =e2 | f4 d2 | g4 fe | d4 d2 | c4 B2 | A4 B2 | %98
w: nein, wie es dir|jetzt mag fal- len|ein. Doch|dass man|dar- nach|tan- zen *|kann, doch|dass man|dar- nach|
 c4 c2 |[M:4/4] B2!f! d2 f4- | f2 f2 e2 d2 | c2 e2 d4 | z2 c2 f4 | z8 | z4 z2 f2 | %105
w: tan- zen|kann, so wirds|_ g'wiss g'fal- len|je- der- mann,|so wirds||so|
 !>!g3 f[Q:1/4=120]"^senza rall." e2 d2 | c4 c4 | d16 |] %108
w: wirds g'wiss g'fal- len|je- der-|mann.|
V:2
 z4!f! B4 | A6 A2 | B2 B2 c2 B2 | A6 F2 | B4 z2 F2 | D2 C2 B,C DE | F4 z4 | z4 z2 A2 | A3 B G2 A2 | %9
w: |||||||||
 B4!p!!<(! F2 FF | C2!<)!!>(! F2 F2 =E2!>)! | F4 |!<(! D2 DE | F2!<)!!>(! G2 F2 C2!>)! | %14
w: |||der'n we- der|viel noch we- nig|
 D4!<(! DCB,C | D2!<)! E2!>(! FG A2!>)! | B2 BB!<(! GA B2!<)! | A2 B4!>(! A2 | B8!>)! || %19
w: sein, der'n * we- der|viel noch we- nig sein,|der'n we- der viel * noch|we- * nig|sein,|
[M:3/8] z2!p!"^ma bien marcato" E- | E2 C- | C2 F- | F2 D- | D2 G- | G2 E- | E2 E- | E2 z | z3 | %28
w: die|_ sol-|* ches|_ kön-|* nen|_ sin-|* gen,|_||
 z3 | E3 | C3 | F3 | D3 | G3 | E3 |[M:4/4] z4!<(! F4!<)! | A2!>(! d2 c2 B2 | A2 B4 A2!>)! | %38
w: |sol-|ches|kön-|nen|sin-|gen,|die|sol- ches kön- nen|sin- * *|
 B4 z2!f! B,2 | F3 E D2 C2 | F3 E D2 C2 | B,2 B,2 B,4 | z2 B,2 E3 D | C2 C2 D3 C | B,2 !>!C4 E2 | %45
w: gen, und|soll- t'n sie, und|soll- t'n sie, und|soll- t'n sie,|und soll- t'n|sie, und soll- t'n||
 F4 F2 F2 | E2 C2 F4 | !>!G6 F2 | F4 F4 | !>!G2 !>!A2 z2 A2 |[M:3/4] F4!p! B2 | B4 B2 | c4 B2 | %53
w: ||||||||
 B4 A2 | B4 F2 | A4 G2 | F4 G2 | G4 A2 |[M:4/4] B8 | z2!f! B2 G4 | z2 F2 G2 A2 | B2 G2 A4 | z8 | %63
w: tan- zen|kann, doch|dass man|dar- nach|tan- zen|kann,|so wirds|g'wiss g'fal- len|je- der- mann,||
 z2 F2 G2 A2 | B2 G2 F4 | z2 A2 !>!B4- | B2 B2 B2 B2 | B4 A4 | !fermata!B16 ||[M:4/4] z8 | z8 | %71
w: g'wiss g'fal- len|je- der- mann,|so wirds|_ g'wiss g'fal- len|je- der-|mann.|||
 z4 z2!mf! F2 | D6 G2 | F2 D2 C2 F2 | B4 z2 F2 | A2 F2 G2 B2 | B2 G2 c2 c2 | B4 z2!f! F2 | %78
w: |||||||
 _D4 z2 D2 | F4 z2!<(! E2 | E4 _A4!<)! | B4 z2 F2 | D2 =E2 F2 G2 | A2 F2 B2 c2 | d2 c2 A2 B2 | %85
w: |||* wie|sich sonst will ge-|bür'n, wie sich sonst|will ge- bür'n, wie|
 !>!B6 B2 | A2 B4 A2 | !>!A2 BB GcBB | AAFF GECF | G2 A2 A2 G2 | F2 F2 c2 c2 |[M:3/4] F4!p! B2 | %92
w: sich sonst|will ge- bür'n.||||||
 B4 B2 | c4 B2 | B4 A2 | B4 B2 | A4 G2 | F4 G2 | G4 F2 |[M:4/4] F4 z2!f! F2 | B6 B2 | A2 G2 F2 B2 | %102
w: ||||dass man|dar- nach|tan- zen|kann, so|wirds g'wiss|g'fal- len je- der-|
 A8 | z2 B2 A2 G2 | F2 B2 A2 A2 | !>!B3 B G2 B2 | B4 A4 | B16 |] %108
w: mann,|g'wiss g'fal- len|je- der- mann, so|wirds g'wiss g'fal- len|je- der-|mann.|
V:3
 z4!f! f4 | f6 f2 | f2 g2 f2 f2 | f8 | z2 d2 c4 | z8 | z2 A2 B2 c2 | d2 B2 A2 c2 | c3 B c2 c2 | %9
w: Mach|mir ein|lus- tigs Lie- de-|lein,|mach mir||ein lus- tigs|Lie- de- lein, ein|lus- tigs Lie- de-|
 B4!p!!<(! F2 FG | A2!<)!!>(! B2 A2 c2!>)! | F4 |!<(! B2 BG | F2!<)!!>(! B2 B2 A2!>)! | B4 z4 | %15
w: lein. Der'n we- der|viel noch we- nig|sein,|der'n we- der|viel noch we- nig|sein,|
 z8 | d2 dd!<(! =e2 f2!<)! | f4!>(! f4 | f8!>)! ||[M:3/8] z3 | z3 | z3 | z3 | %23
w: |der'n we- der viel noch|we- nig|sein,|||||
 z2!p!"^ma bien marcato" B- | B2 G- | G2 c- | c2 A- | A2 B- | B2 G- | G2 A- | A z z | z3 | z B2- | %33
w: die|_ sol-|* ches|_ kön-|* nen|_ sin-|* gen,|_||sol-|
 B G2- | G c2- |[M:4/4]!<(! c A3!<)! d2 d2 | d2!>(! d2 G2 g2 | c2 d2 c4!>)! | f8 | z2!f! F2 B2 A2 | %40
w: * ches|_ kön-|* nen sin- gen,|sol- ches kön- nen|sin- * *|gen,|und soll- t'n|
 d4 z4 | z2 F2 B3 A | G2 F2 c3 B | A2 G2 F2 B2 | B2 !>!A4 B2 | c4 d2 B2 | B2 A2 B4 | !>!B6 B2 | %48
w: sie,|und soll- t'n|sie, und soll- t'n|sie, und soll- t'n|sie drob zer-|sprin- gen, und|soll- t'n sie|drob zer-|
 A4 B4 | !>!B2 !>!f2 z2 f2 |[M:3/4] d4!p! f2 | f4 g2 | a4 f2 | e4 c2 | d4 d2 | f4 d2 | d4 d2 | %57
w: sprin- gen,|drob zer- sprin-|gen. Doch|dass man|dar- nach|tan- zen|kann, doch|dass man|dar- nach|
 e4 c2 |[M:4/4] d8 | z8 | z8 | z4 z2!f! f2 | d6 B2 | c2 d2 e2 c2 | B8 | z2 c2 !>!e4- | %66
w: tan- zen|kann,|||so|wirds g'wiss|g'fal- len je- der-|mann,|so wirds|
 e2 d2 g2 f2 | f4 f4 | !fermata!f16 ||[M:4/4]!mf! d4 c4- | c2 A2 B2 c2 | d2 =e2 f4 | z8 | z8 | %74
w: _ g'wiss g'fal- len|je- der-|mann.|Darfst nicht|_ viel drin- nen|ob- ser- vier'n|||
 z2 d2 c4 | z2 A2 B2 F2 | G2 B2 B2 A2 | B2!f! f2 c4 | z2 f2 f4 | z2 f2 B4 |!<(! z4 f4!<)! | %81
w: den Ton,|den Ton, wie|sich sonst will ge-|bür'n, den Ton,|den Ton,|den Ton,|den|
 f2 B2 G2 A2 | B2 c2 d4 | z8 | z4 z2 f2 | !>!g6 f2 | f2 d2 f4 | !>!f2 ff gggf | ffcc eBAd | %89
w: Ton, wie sich sonst|will ge- bür'n,||wie|sich sonst|will ge- bür'n.|Machs nur schlecht nach der Paus' hin-|ein, machs nur schlecht nach der Paus' hi-|
 e2 f2 f2 B2 | A2 B2 B2 A2 |[M:3/4] B4!p! f2 | f4 g2 | a4 g2 | g4 c2 | f4 f2 | f4 d2 | d4 B2 | %98
w: nein, wie es dir|jetzt mag fal- len|ein. Doch|dass man|dar- nach|tan- zen|kann, doch|dass man|dar- nach|
 B4 A2 |[M:4/4] B8 | z8 | z4 z2!f! d2 | f4 z2 f2 | e2 d2 c2 e2 | d6 f2 | !>!B2 B2 e2 f2 | f4 f4 | %107
w: tan- zen|kann,||so|wirds g'wiss|g'fal- len je- der-|mann, so|wirds g'wiss g'fal- len|je- der-|
 f16 |] %108
w: mann.|
V:4
!f! B,8 | F,6 F,2 | B,2 G,2 A,2 B,2 | F,8 | z2 B,2 F,4 | z8 | z2 F,2 D,2 C,2 | B,,C, D,E, F,2 F,2 | %8
w: Mach|mir ein|lus- tigs Lie- de-|lein,|||||
 F,3 D, C,2 F,2 | B,,4 z4 | z8 | z4 |!p!!<(! B,,2 B,,C, | D,2!<)!!>(! E,2 D,2 F,2!>)! | B,,4 z4 | %15
w: |||||||
 z8 | B,2 B,B,!<(! C2 B,2!<)! | F,4!>(! F,4 | B,,8!>)! ||[M:3/8] z3 | z3 | z3 | z3 | z3 | %24
w: |||||||||
 z!p!"^ma bien marcato""^die ___" E,2- | E,"^sol      -" C,2- | C,"^ches___" F,2- | %27
w: |||
 F,"^kön -" D,2- | D, E,2- | E, C,2- | C, F,2- | F,2 z | z3 | E,3 | C,3 |[M:4/4]!<(! F,4!<)! D,4- | %36
w: |* nen|_ sin-|* gen,|_||die|sol-|ches kön-|
 D,4!>(! E,4 | F,8!>)! | B,,8 | z8 | z2!f! B,,2 F,3 E, | D,4 z2 B,,2 | E,2 D,2 C,2 C,2 | %43
w: * nen|sin-|gen,||und soll- t'n|sie, und|soll- t'n sie, und|
 F,2 E,2 D,4 | z2 !>!F,4 G,2 | F,4 B,,2 B,,2 | E,2 F,2 B,,4 | !>!E,6 B,,2 | F,4 B,,4 | %49
w: soll- t'n sie||||||
 !>!E,2 !>!F,2 z2 F,2 |[M:3/4] B,4!p! B,2 | B,4 G,2 | F,4 B,2 | E,4 F,2 | B,,4 B,2 | F,4 G,2 | %56
w: |||||||
 D,4 G,2 | E,4 F,2 |[M:4/4] B,,8 | z8 | z8 | z8 | z8 | z8 | z8 | z2!f! F,2 !>!E,4- | %66
w: |||||||||so wirds|
 E,2 B,2 E,2 B,2 | F,4 F,4 | !fermata!B,,16 ||[M:4/4]!mf! B,4 F,4- | F,2 F,2 G,2 E,2 | %71
w: _ g'wiss g'fal- len|je- der-|mann.|||
 D,2 G,2 F,4 | z8 | z8 | z2 B,2 F,4 | z2 F,2 E,2 D,2 | G,2 G,2 F,2 F,2 | B,,4 z2!f! F,2 | %78
w: ||||||* den|
 B,,4 z2 B,,2 | D,4 z2!<(! E,2 | _A,4 F,4!<)! | B,,4 z4 | z8 | z2 B,2 G,2 A,2 | B,2 C2 D2 B,2 | %85
w: Ton, den|Ton, den|Ton, den|Ton,||wie sich sonst|will ge- bür'n, wie|
 !>!E,6 B,2 | F,2 G,2 F,4 | !>!F,2 B,D CCG,B, | F,F,F,F, E,E,F,D, | C,2 F,2 D,2 E,2 | %90
w: sich sonst|will ge- bür'n.||||
 F,2 D,2 C,2 C,2 |[M:3/4] B,,4!p! B,2 | B,4 G,2 | F,4 G,2 | E,4 F,2 | B,,4 B,2 | F,4 G,2 | %97
w: |||||||
 D,4 G,2 | E,4 F,2 |[M:4/4] B,,8 | z8 | z8 | z8 | z8 | z4 z2!f! F,2 | !>!E,3 D, E,2 B,,2 | %106
w: |||||||so|wirds g'wiss g'fal- len|
 F,4 F,4 | B,,16 |] %108
w: je- der-|mann.|

